SVG_Azure_Grouped/Application/Event Grid Partner Destination.svg

<?xml version="1.0" encoding="UTF-8" standalone="no"?>
<!-- Generated by Microsoft Visio, SVG Export Event Grid Partner Destination.svg Page-1 -->

<svg
   xmlns:dc="http://purl.org/dc/elements/1.1/"
   xmlns:cc="http://creativecommons.org/ns#"
   xmlns:rdf="http://www.w3.org/1999/02/22-rdf-syntax-ns#"
   xmlns:svg="http://www.w3.org/2000/svg"
   xmlns="http://www.w3.org/2000/svg"
   xmlns:xlink="http://www.w3.org/1999/xlink"
   xmlns:sodipodi="http://sodipodi.sourceforge.net/DTD/sodipodi-0.dtd"
   xmlns:inkscape="http://www.inkscape.org/namespaces/inkscape"
   width="0.78751397in"
   height="0.70870197in"
   viewBox="0 0 56.700844 51.026526"
   xml:space="preserve"
   class="st6"
   version="1.1"
   id="svg97"
   sodipodi:docname="Event Grid Partner Destination.svg"
   style="font-size:12px;overflow:visible;color-interpolation-filters:sRGB;fill:none;fill-rule:evenodd;stroke-linecap:square;stroke-miterlimit:3"
   inkscape:version="0.92.5 (2060ec1f9f, 2020-04-08)"><metadata
   id="metadata101"><rdf:RDF><cc:Work
       rdf:about=""><dc:format>image/svg+xml</dc:format><dc:type
         rdf:resource="http://purl.org/dc/dcmitype/StillImage" /></cc:Work></rdf:RDF></metadata><sodipodi:namedview
   pagecolor="#ffffff"
   bordercolor="#666666"
   borderopacity="1"
   objecttolerance="10"
   gridtolerance="10"
   guidetolerance="10"
   inkscape:pageopacity="0"
   inkscape:pageshadow="2"
   inkscape:window-width="640"
   inkscape:window-height="480"
   id="namedview99"
   showgrid="false"
   inkscape:zoom="1.4869072"
   inkscape:cx="37.800075"
   inkscape:cy="34.00684"
   inkscape:window-x="0"
   inkscape:window-y="0"
   inkscape:window-maximized="0"
   inkscape:current-layer="svg97" />
	<style
   type="text/css"
   id="style2">
	<![CDATA[
		.st1 {fill:#a3a3a3;stroke:none;stroke-linecap:butt;stroke-width:34}
		.st2 {fill:#a3a3a3;fill-opacity:0.5;stroke:none;stroke-linecap:butt;stroke-width:34}
		.st3 {fill:#949494;stroke:none;stroke-linecap:butt;stroke-width:34}
		.st4 {fill:#6f4bb2;stroke:none;stroke-linecap:butt;stroke-width:34}
		.st5 {fill:url(#grad0-32);stroke:none;stroke-linecap:butt;stroke-width:34}
		.st6 {fill:none;fill-rule:evenodd;font-size:12px;overflow:visible;stroke-linecap:square;stroke-miterlimit:3}
	]]>
	</style>

	<defs
   id="Patterns_And_Gradients">
		<linearGradient
   id="grad0-32"
   x1="0"
   y1="0"
   x2="1"
   y2="0"
   gradientTransform="rotate(-90,0.5,0.5)">
			<stop
   offset="0"
   stop-color="#50e6ff"
   stop-opacity="1"
   id="stop4" />
			<stop
   offset="1"
   stop-color="#5ea0ef"
   stop-opacity="1"
   id="stop6" />
		</linearGradient>
	<linearGradient
   inkscape:collect="always"
   xlink:href="#grad0-32"
   id="linearGradient4611"
   gradientTransform="scale(1.3572948,0.73675964)"
   x1="-0.2661888"
   y1="143.53697"
   x2="17.788661"
   y2="143.53697"
   gradientUnits="userSpaceOnUse" /><linearGradient
   inkscape:collect="always"
   xlink:href="#grad0-32"
   id="linearGradient4613"
   gradientTransform="scale(1.351464,0.73993834)"
   x1="-0.26121352"
   y1="142.7852"
   x2="17.851221"
   y2="142.7852"
   gradientUnits="userSpaceOnUse" /></defs>
	<g
   id="g95"
   transform="translate(-33.997611,-33.998097)">
		<title
   id="title10">Page-1</title>
		<g
   id="group14186-1"
   transform="translate(34.0023,-34.0157)">
			<title
   id="title12">Event Grid Partner Destination.14186</title>
			<g
   id="group14187-2">
				<title
   id="title14">Icon-integration-206</title>
				<g
   id="group14188-3"
   transform="translate(0,-37.982)">
					<title
   id="title16">Sheet.14188</title>
					<g
   id="shape14189-4">
						<title
   id="title18">Sheet.14189</title>
						<path
   d="m 1.93,106.03 h 4.29 v 12.03 a 0.964844,0.97476 0 0 1 -0.964844,0.97476 L 0.96,119.04 a 0.964844,0.97476 0 0 1 -0.964844,-0.97476 L 0,107.98 a 1.89642,1.91591 0 0 1 1.93,-1.95 z"
   class="st1"
   id="path20"
   inkscape:connector-curvature="0"
   style="fill:#a3a3a3;stroke:none;stroke-width:34;stroke-linecap:butt" />
					</g>
					<g
   id="shape14190-6">
						<title
   id="title23">Sheet.14190</title>
						<path
   d="m 1.93,106.03 h 4.29 v 12.03 a 0.964844,0.97476 0 0 1 -0.964844,0.97476 L 0.96,119.04 a 0.964844,0.97476 0 0 1 -0.964844,-0.97476 L 0,107.98 a 1.89642,1.91591 0 0 1 1.93,-1.95 z"
   class="st2"
   id="path25"
   inkscape:connector-curvature="0"
   style="fill:#a3a3a3;fill-opacity:0.5;stroke:none;stroke-width:34;stroke-linecap:butt" />
					</g>
				</g>
				<g
   id="group14191-8"
   transform="translate(50.4713,-37.982)">
					<title
   id="title29">Sheet.14191</title>
					<g
   id="shape14192-9">
						<title
   id="title31">Sheet.14192</title>
						<path
   d="m 0,106.03 h 4.29 a 1.89642,1.91591 0 0 1 1.9,1.92 v 10.11 a 0.964844,0.97476 0 0 1 -0.964844,0.97476 L 0.96,119.04 a 0.964844,0.97476 0 0 1 -0.964844,-0.97476 z"
   class="st1"
   id="path33"
   inkscape:connector-curvature="0"
   style="fill:#a3a3a3;stroke:none;stroke-width:34;stroke-linecap:butt" />
					</g>
					<g
   id="shape14193-11">
						<title
   id="title36">Sheet.14193</title>
						<path
   d="m 0,106.03 h 4.29 a 1.89642,1.91591 0 0 1 1.9,1.92 v 10.11 a 0.964844,0.97476 0 0 1 -0.964844,0.97476 L 0.96,119.04 a 0.964844,0.97476 0 0 1 -0.964844,-0.97476 z"
   class="st2"
   id="path38"
   inkscape:connector-curvature="0"
   style="fill:#a3a3a3;fill-opacity:0.5;stroke:none;stroke-width:34;stroke-linecap:butt" />
					</g>
				</g>
				<g
   id="shape14194-13"
   transform="translate(0.0998115,-44.9062)">
					<title
   id="title42">Sheet.14194</title>
					<path
   d="m 56.56,114.84 v 4.2 H 0 v -4.2 a 1.89642,1.91591 0 0 1 1.9,-1.92 h 52.76 a 1.89642,1.91591 0 0 1 1.9,1.92 z"
   class="st3"
   id="path44"
   inkscape:connector-curvature="0"
   style="fill:#949494;stroke:none;stroke-width:34;stroke-linecap:butt" />
				</g>
				<g
   id="group14195-15">
					<title
   id="title47">Sheet.14195</title>
					<g
   id="shape14196-16">
						<title
   id="title49">Sheet.14196</title>
						<path
   d="m 0.96,105.93 h 4.3 a 0.964844,0.97476 0 0 1 0.964844,0.97476 L 6.22,119.04 H 1.93 A 1.89642,1.91591 0 0 1 0,117.06 v -10.09 a 0.964844,0.97476 0 0 1 0.964844,-1.04198 z"
   class="st1"
   id="path51"
   inkscape:connector-curvature="0"
   style="fill:#a3a3a3;stroke:none;stroke-width:34;stroke-linecap:butt" />
					</g>
					<g
   id="shape14197-18">
						<title
   id="title54">Sheet.14197</title>
						<path
   d="m 0.96,105.93 h 4.3 a 0.964844,0.97476 0 0 1 0.964844,0.97476 L 6.22,119.04 H 1.93 A 1.89642,1.91591 0 0 1 0,117.06 v -10.09 a 0.964844,0.97476 0 0 1 0.964844,-1.04198 z"
   class="st2"
   id="path56"
   inkscape:connector-curvature="0"
   style="fill:#a3a3a3;fill-opacity:0.5;stroke:none;stroke-width:34;stroke-linecap:butt" />
					</g>
				</g>
				<g
   id="group14198-20"
   transform="translate(50.4713,-0.13445)">
					<title
   id="title60">Sheet.14198</title>
					<g
   id="shape14199-21">
						<title
   id="title62">Sheet.14199</title>
						<path
   d="m 0.96,106.06 h 4.3 a 0.964844,0.97476 0 0 1 0.964844,0.97476 L 6.22,117.12 a 1.89642,1.91591 0 0 1 -1.89,1.92 H 0 v -11.93 a 0.964844,0.97476 0 0 1 0.964844,-1.04198 z"
   class="st1"
   id="path64"
   inkscape:connector-curvature="0"
   style="fill:#a3a3a3;stroke:none;stroke-width:34;stroke-linecap:butt" />
					</g>
					<g
   id="shape14200-23">
						<title
   id="title67">Sheet.14200</title>
						<path
   d="m 0.96,106.06 h 4.3 a 0.964844,0.97476 0 0 1 0.964844,0.97476 L 6.22,117.12 a 1.89642,1.91591 0 0 1 -1.89,1.92 H 0 v -11.93 a 0.964844,0.97476 0 0 1 0.964844,-1.04198 z"
   class="st2"
   id="path69"
   inkscape:connector-curvature="0"
   style="fill:#a3a3a3;fill-opacity:0.5;stroke:none;stroke-width:34;stroke-linecap:butt" />
					</g>
				</g>
				<g
   id="shape14201-25">
					<title
   id="title73">Sheet.14201</title>
					<path
   d="m 0,117.12 v -4.2 h 56.56 v 4.2 a 1.89642,1.91591 0 0 1 -1.9,1.92 H 1.9 A 1.89642,1.91591 0 0 1 0,117.12 Z"
   class="st3"
   id="path75"
   inkscape:connector-curvature="0"
   style="fill:#949494;stroke:none;stroke-width:34;stroke-linecap:butt" />
				</g>
				<g
   id="shape14202-27"
   transform="translate(16.8856,-18.9648)">
					<title
   id="title78">Sheet.14202</title>
					<path
   d="m 31.12,111.95 -6.05,-6.18 a 0.299434,0.302512 -180 0 0 -0.532328,0.23529 L 24.54,109.8 a 0.299434,0.302512 0 0 1 -0.332705,0.33612 L 6.77,110.14 a 3.4934,3.5293 -180 0 0 -2.76,-1.38 3.65975,3.69736 -180 1 0 0,7.36 3.59321,3.63014 -180 0 0 2.79,-1.41 h 17.4 a 0.299434,0.302512 0 0 1 0.332705,0.30251 L 24.54,118.74 a 0.299434,0.302512 -180 0 0 0.532328,0.20167 L 31.12,112.86 a 0.66541,0.672248 -180 0 0 0,-0.90753 z"
   class="st4"
   id="path80"
   inkscape:connector-curvature="0"
   style="fill:#6f4bb2;stroke:none;stroke-width:34;stroke-linecap:butt" />
				</g>
				<g
   id="shape14203-29"
   transform="translate(12.863,-29.8889)">
					<title
   id="title83">Sheet.14203</title>
					<path
   d="m 23.97,111.95 -6.06,-6.08 a 0.299434,0.302512 -180 0 0 -0.532328,0.23529 L 17.38,109.97 a 0.299434,0.302512 0 0 1 -0.299434,0.33612 L 6.17,110.31 a 3.55994,3.59653 -180 0 0 -2.8,-1.38 3.65975,3.69736 -180 1 0 2.83,5.95 h 10.88 a 0.299434,0.302512 0 0 1 0.299434,0.30251 L 17.38,118.74 a 0.299434,0.302512 -180 0 0 0.532328,0.20167 L 23.97,112.86 a 0.66541,0.672248 -180 0 0 0,-0.90753 z"
   class="st5"
   id="path85"
   inkscape:connector-curvature="0"
   style="fill:url(#linearGradient4611);stroke:none;stroke-width:34;stroke-linecap:butt" />
				</g>
				<g
   id="shape14204-33"
   transform="translate(12.9316,-7.73829)">
					<title
   id="title88">Sheet.14204</title>
					<path
   d="m 23.9,111.85 -6.06,-6.08 a 0.299434,0.302512 -180 0 0 -0.532328,0.23529 L 17.31,109.7 a 0.332705,0.336124 0 0 1 -0.299434,0.33612 L 6.1,110.04 a 3.55994,3.59653 -180 0 0 -2.8,-1.38 3.65975,3.69736 -180 1 0 2.83,6.05 h 10.88 a 0.299434,0.302512 0 0 1 0.299434,0.30251 L 17.31,118.74 a 0.299434,0.302512 -180 0 0 0.532328,0.20167 L 23.9,112.86 a 0.66541,0.672248 -180 0 0 0,-1.00837 z"
   class="st5"
   id="path90"
   inkscape:connector-curvature="0"
   style="fill:url(#linearGradient4613);stroke:none;stroke-width:34;stroke-linecap:butt" />
				</g>
			</g>
		</g>
	</g>
</svg>

<?xml version="1.0" encoding="UTF-8" standalone="no"?>
<!DOCTYPE svg PUBLIC "-//W3C//DTD SVG 1.1//EN" "http://www.w3.org/Graphics/SVG/1.1/DTD/svg11.dtd">
<!-- Generated by Microsoft Visio, SVG Export Event Grid Partner Destination.svg Page-1 -->
<svg xmlns="http://www.w3.org/2000/svg" xmlns:xlink="http://www.w3.org/1999/xlink" xmlns:ev="http://www.w3.org/2001/xml-events"
		width="1.73188in" height="1.65332in" viewBox="0 0 124.695 119.039" xml:space="preserve" color-interpolation-filters="sRGB"
		class="st6">
	<style type="text/css">
	<![CDATA[
		.st1 {fill:#a3a3a3;stroke:none;stroke-linecap:butt;stroke-width:34}
		.st2 {fill:#a3a3a3;fill-opacity:0.5;stroke:none;stroke-linecap:butt;stroke-width:34}
		.st3 {fill:#949494;stroke:none;stroke-linecap:butt;stroke-width:34}
		.st4 {fill:#6f4bb2;stroke:none;stroke-linecap:butt;stroke-width:34}
		.st5 {fill:url(#grad0-32);stroke:none;stroke-linecap:butt;stroke-width:34}
		.st6 {fill:none;fill-rule:evenodd;font-size:12px;overflow:visible;stroke-linecap:square;stroke-miterlimit:3}
	]]>
	</style>

	<defs id="Patterns_And_Gradients">
		<linearGradient id="grad0-32" x1="0" y1="0" x2="1" y2="0" gradientTransform="rotate(-90 0.5 0.5)">
			<stop offset="0" stop-color="#50e6ff" stop-opacity="1"/>
			<stop offset="1" stop-color="#5ea0ef" stop-opacity="1"/>
		</linearGradient>
	</defs>
	<g>
		<title>Page-1</title>
		<g id="group13839-1" transform="translate(34.0023,-34.0157)">
			<title>Event Grid Partner Destination.13839</title>
			<g id="group13840-2">
				<title>Icon-integration-206</title>
				<g id="group13841-3" transform="translate(-5.79536E-14,-37.982)">
					<title>Sheet.13841</title>
					<g id="shape13842-4">
						<title>Sheet.13842</title>
						<path d="M1.93 106.03 L6.22 106.03 L6.22 118.06 a0.964844 0.97476 0 0 1 -0.964844 0.97476 L0.96 119.04 a0.964844
									 0.97476 0 0 1 -0.964844 -0.97476 L0 107.98 A1.89642 1.91591 0 0 1 1.93 106.03 Z" class="st1"/>
					</g>
					<g id="shape13843-6">
						<title>Sheet.13843</title>
						<path d="M1.93 106.03 L6.22 106.03 L6.22 118.06 a0.964844 0.97476 0 0 1 -0.964844 0.97476 L0.96 119.04 a0.964844
									 0.97476 0 0 1 -0.964844 -0.97476 L0 107.98 A1.89642 1.91591 0 0 1 1.93 106.03 Z" class="st2"/>
					</g>
				</g>
				<g id="group13844-8" transform="translate(50.4713,-37.982)">
					<title>Sheet.13844</title>
					<g id="shape13845-9">
						<title>Sheet.13845</title>
						<path d="M0 106.03 L4.29 106.03 A1.89642 1.91591 0 0 1 6.19 107.95 L6.19 118.06 a0.964844 0.97476 0 0 1 -0.964844
									 0.97476 L0.96 119.04 a0.964844 0.97476 0 0 1 -0.964844 -0.97476 L0 106.03 Z" class="st1"/>
					</g>
					<g id="shape13846-11">
						<title>Sheet.13846</title>
						<path d="M0 106.03 L4.29 106.03 A1.89642 1.91591 0 0 1 6.19 107.95 L6.19 118.06 a0.964844 0.97476 0 0 1 -0.964844
									 0.97476 L0.96 119.04 a0.964844 0.97476 0 0 1 -0.964844 -0.97476 L0 106.03 Z" class="st2"/>
					</g>
				</g>
				<g id="shape13847-13" transform="translate(0.0998115,-44.9062)">
					<title>Sheet.13847</title>
					<path d="M56.56 114.84 L56.56 119.04 L0 119.04 L0 114.84 A1.89642 1.91591 0 0 1 1.9 112.92 L54.66 112.92 A1.89642
								 1.91591 0 0 1 56.56 114.84 Z" class="st3"/>
				</g>
				<g id="group13848-15">
					<title>Sheet.13848</title>
					<g id="shape13849-16">
						<title>Sheet.13849</title>
						<path d="M0.96 105.93 L5.26 105.93 a0.964844 0.97476 0 0 1 0.964844 0.97476 L6.22 119.04 L1.93 119.04 A1.89642
									 1.91591 0 0 1 -0 117.06 L0 106.97 a0.964844 0.97476 0 0 1 0.964844 -1.04198 Z" class="st1"/>
					</g>
					<g id="shape13850-18">
						<title>Sheet.13850</title>
						<path d="M0.96 105.93 L5.26 105.93 a0.964844 0.97476 0 0 1 0.964844 0.97476 L6.22 119.04 L1.93 119.04 A1.89642
									 1.91591 0 0 1 -0 117.06 L0 106.97 a0.964844 0.97476 0 0 1 0.964844 -1.04198 Z" class="st2"/>
					</g>
				</g>
				<g id="group13851-20" transform="translate(50.4713,-0.13445)">
					<title>Sheet.13851</title>
					<g id="shape13852-21">
						<title>Sheet.13852</title>
						<path d="M0.96 106.06 L5.26 106.06 a0.964844 0.97476 0 0 1 0.964844 0.97476 L6.22 117.12 A1.89642 1.91591
									 0 0 1 4.33 119.04 L0 119.04 L0 107.11 a0.964844 0.97476 0 0 1 0.964844 -1.04198 Z" class="st1"/>
					</g>
					<g id="shape13853-23">
						<title>Sheet.13853</title>
						<path d="M0.96 106.06 L5.26 106.06 a0.964844 0.97476 0 0 1 0.964844 0.97476 L6.22 117.12 A1.89642 1.91591
									 0 0 1 4.33 119.04 L0 119.04 L0 107.11 a0.964844 0.97476 0 0 1 0.964844 -1.04198 Z" class="st2"/>
					</g>
				</g>
				<g id="shape13854-25">
					<title>Sheet.13854</title>
					<path d="M0 117.12 L0 112.92 L56.56 112.92 L56.56 117.12 A1.89642 1.91591 0 0 1 54.66 119.04 L1.9 119.04 A1.89642
								 1.91591 0 0 1 0 117.12 Z" class="st3"/>
				</g>
				<g id="shape13855-27" transform="translate(16.8856,-18.9648)">
					<title>Sheet.13855</title>
					<path d="M31.12 111.95 L25.07 105.77 a0.299434 0.302512 -180 0 0 -0.532328 0.235287 L24.54 109.8 a0.299434 0.302512
								 0 0 1 -0.332705 0.336124 L6.77 110.14 A3.4934 3.5293 -180 0 0 4.01 108.76 A3.65975 3.69736 -180
								 1 0 4.01 116.12 A3.59321 3.63014 -180 0 0 6.8 114.71 L24.2 114.71 a0.299434 0.302512 0 0 1 0.332705
								 0.302512 L24.54 118.74 a0.299434 0.302512 -180 0 0 0.532328 0.201674 L31.12 112.86 a0.66541 0.672248
								 -180 0 0 -2.13163E-14 -0.907535 Z" class="st4"/>
				</g>
				<g id="shape13856-29" transform="translate(12.863,-29.8889)">
					<title>Sheet.13856</title>
					<path d="M23.97 111.95 L17.91 105.87 a0.299434 0.302512 -180 0 0 -0.532328 0.235287 L17.38 109.97 a0.299434 0.302512
								 0 0 1 -0.299434 0.336124 L6.17 110.31 A3.55994 3.59653 -180 0 0 3.37 108.93 A3.65975 3.69736 -180
								 1 0 6.2 114.88 L17.08 114.88 a0.299434 0.302512 0 0 1 0.299434 0.302512 L17.38 118.74 a0.299434
								 0.302512 -180 0 0 0.532328 0.201674 L23.97 112.86 a0.66541 0.672248 -180 0 0 -1.77636E-14 -0.907535
								 Z" class="st5"/>
				</g>
				<g id="shape13857-33" transform="translate(12.9316,-7.73829)">
					<title>Sheet.13857</title>
					<path d="M23.9 111.85 L17.84 105.77 a0.299434 0.302512 -180 0 0 -0.532328 0.235287 L17.31 109.7 a0.332705 0.336124
								 0 0 1 -0.299434 0.336124 L6.1 110.04 A3.55994 3.59653 -180 0 0 3.3 108.66 A3.65975 3.69736 -180
								 1 0 6.13 114.71 L17.01 114.71 a0.299434 0.302512 0 0 1 0.299434 0.302512 L17.31 118.74 a0.299434
								 0.302512 -180 0 0 0.532328 0.201674 L23.9 112.86 a0.66541 0.672248 -180 0 0 -1.42109E-14 -1.00837
								 Z" class="st5"/>
				</g>
			</g>
		</g>
	</g>
</svg>
